Papirus/24x24/panel/youtube-indicator-downloading-light.svg

<?xml version="1.0" encoding="UTF-8" standalone="no"?>
<svg xmlns:dc="http://purl.org/dc/elements/1.1/" xmlns:cc="http://creativecommons.org/ns#" xmlns:rdf="http://www.w3.org/1999/02/22-rdf-syntax-ns#" xmlns:svg="http://www.w3.org/2000/svg" xmlns="http://www.w3.org/2000/svg" version="1.1" id="svg4295" viewBox="0 0 23.999999 24" height="24" width="24">
    <metadata id="metadata4300">
        <rdf:RDF>
            <cc:Work rdf:about="">
                <dc:format>
                    image/svg+xml
                </dc:format>
                <dc:type rdf:resource="http://purl.org/dc/dcmitype/StillImage"/>
                <dc:title/>
            </cc:Work>
        </rdf:RDF>
    </metadata>
    <g transform="translate(1.0000276,1)" id="g4136">
        <g id="layer1" transform="translate(0,-1030.3622)">
            <path id="path4269" transform="translate(-9.5367432e-7,1030.3622)" d="m 10.998047,4 c 0,0 -3.7785091,5.531e-4 -6.2968751,0.1894531 -0.35178,0.044 -1.1181674,0.048016 -1.8027344,0.7910157 -0.539561,0.5663999 -0.7148437,1.8515624 -0.7148437,1.8515624 0,0 -0.1770926,1.5109844 -0.1796876,3.0214844 L 2,12.140625 c -0.0026,1.5106 0.1796875,3.021484 0.1796875,3.021484 0,0 0.1752828,1.285063 0.7148437,1.851563 0.6845661,0.7435 1.583861,0.720928 1.984375,0.798828 C 6.3186042,17.9557 10.998047,18 10.998047,18 c 0,0 2.766194,-0.01494 5.150391,-0.134766 L 15.199219,16.599609 C 14.705307,15.940114 15.176057,14.999763 16,15 l 1,0 0,-3.119141 c 0,-0.406578 0.08709,-0.789723 0.300781,-1.142578 C 17.514475,10.385427 17.942613,10 18.533203,10 l 0.933594,0 C 19.666006,10 19.839752,10.05334 20,10.125 l 0,-0.2714844 c 0.0026,-1.5105 -0.179688,-3.0214844 -0.179688,-3.0214844 0,0 -0.175236,-1.2851625 -0.714843,-1.8515624 C 18.421153,4.2369687 17.652545,4.2329531 17.300781,4.1894531 14.782505,4.0005531 11.005859,4 11.005859,4 Z M 8,7 14,11.013672 8,15 Z" style="display:inline;opacity:1;fill:#ffffff;fill-opacity:1;fill-rule:nonzero;stroke:none;enable-background:new"/>
        </g>
        <path id="rect4135" d="M 18.533203,11 C 18.237903,11 18,11.392401 18,11.880859 L 18,16 l -2,0 1.5,2 1.5,2 1.5,-2 1.5,-2 -2,0 0,-4.119141 C 20,11.392401 19.762097,11 19.466797,11 l -0.933594,0 z" style="opacity:1;fill:#ffffff;fill-opacity:1;stroke:none;stroke-width:2;stroke-miterlimit:4;stroke-dasharray:none;stroke-opacity:1"/>
    </g>
</svg>

<?xml version="1.0" encoding="UTF-8" standalone="no"?>
<svg id="svg4295" xmlns:rdf="http://www.w3.org/1999/02/22-rdf-syntax-ns#" xmlns="http://www.w3.org/2000/svg" viewBox="0 0 23.999999 24" width="24" version="1.1" xmlns:cc="http://creativecommons.org/ns#" height="24" xmlns:dc="http://purl.org/dc/elements/1.1/">
 <metadata id="metadata4300">
  <rdf:RDF>
   <cc:Work rdf:about="">
    <dc:format>image/svg+xml</dc:format>
    <dc:type rdf:resource="http://purl.org/dc/dcmitype/StillImage"/>
    <dc:title/>
   </cc:Work>
  </rdf:RDF>
 </metadata>
 <g id="g4136" transform="translate(1 1)">
  <g id="layer1" transform="translate(0 -1030.4)">
   <path id="path4269" style="enable-background:new" d="m10.998 4s-3.7785 0.0005531-6.2969 0.18945c-0.35178 0.044-1.1182 0.048016-1.8027 0.79102-0.53956 0.5664-0.71484 1.8516-0.71484 1.8516s-0.17709 1.511-0.17969 3.0215l-0.0039 2.2874c-0.0026 1.5106 0.17969 3.0215 0.17969 3.0215s0.17528 1.2851 0.71484 1.8516c0.68457 0.7435 1.5839 0.72093 1.9844 0.79883 1.4397 0.143 6.1191 0.187 6.1191 0.187s2.7662-0.01494 5.1504-0.13477l-0.949-1.265c-0.494-0.66-0.023-1.6 0.801-1.6h1v-3.1191c0-0.40658 0.08709-0.78972 0.30078-1.1426 0.213-0.353 0.642-0.738 1.232-0.738h0.93359c0.199 0 0.373 0.053 0.533 0.125v-0.27148c0.0026-1.5105-0.17969-3.0215-0.17969-3.0215s-0.17524-1.2852-0.71484-1.8516c-0.684-0.7434-1.452-0.7474-1.804-0.7909-2.518-0.1889-6.295-0.1895-6.295-0.1895zm-2.998 3 6 4.014-6 3.986z" transform="translate(-9.5367e-7 1030.4)" fill="#fff"/>
  </g>
  <path id="rect4135" d="m18.533 11c-0.295 0-0.533 0.392-0.533 0.881v4.119h-2l1.5 2 1.5 2 1.5-2 1.5-2h-2v-4.1191c0-0.489-0.238-0.881-0.533-0.881h-0.93359z" fill="#fff"/>
 </g>
</svg>
